X: 54
T:Old Jake Gillie
L:1/8
M:C|
K:D
S:https://tunearch.org/wiki/Old_Jake_Gillie
f2 fa f2d2|fdec d3e|fafe dfed|BA F2 D3 (3A/B/c/|
defd e2 de|fd e2 d3e|fafe dfed|BA F2 D3||
|:E|FABF A2 BA|FBAF EFDE|FBAF ABFB|AFEF D3:|
|:z|a2 ab a2f2|abaf edfg|a2ab a2g2|fd e(d d2)z2:|

